X:1
T:Wheat Sheaf
M:6/8
L:1/8
C:Chris Ricciotti
O:Duns Tew
P:A.(A2B3)4.C
Q:C3=76
K:G
P:A
D |: G2 G GDB | A3 ABc |1 BcB AGA | BAG E2 D :|
[2 BcB AGF | GDG BGd :|
P:B
|: g2 g gdB | e3 efg | d2 e dcB | c2 B A2 c |
BcB AGF |[1 GDG BGd:| [2 GDB, G,B,D |]
P:C
|: G2 G GDB | A3 ABc |1 BcB AGA | BAG E2 D :|
[2 BcB AGF | GBd g3 |]
</abc>



